X:1
T:A Tune For Lottie
R:Air
C:Danny Hutcheson
M:4/4
L:1/8
K:D
{g}de [|: {g}f>e {g}f<a {e}f2 {g}f/e/d | {gCd}B2 {gf}g>f {g}f<A {g}de/f/ | {gf}g2 {fg}f>e {g}f<a A/B/d | {gef}e4 {A}e3 a | 
{g}a>g {a}f<a {Gdc}d3 e/f/ | {gf}g>a f/e/d {gBd}B3 {g}A/B/ | {gc}d>f {gef}e/d/{A}B {g}e>f d<{e}B| ["1" {G}A6 {g}de  :|] ["2" {G}A6 {g}dc |
[|: {gBd}B>A {g}B<d {gef}e2 A>f | {gf}g>a f/e/d {g}d3 e/f/ | {gf}g>a f/e/d {g}f>g {ag}a{e}f | ["1" {gef}e4 {A}e3 a |
{g}a>g {a}f<a {Gdc}d3 e/f/ | {gf}g>a f/e/d {gBd}B3 {g}A/B/ | {gc}d>f {gef}e/d/{A}B {g}e>f d<{e}B| {G}A6 {g}dc :|]
["2"{gef}e4 {A}e2 {g}de | {g}f>e {g}f<a {e}f2 {g}f/e/d | {gcd}B2 {gf}g>f {g}f<A {g}de/f/ | {gf}g>a f/e/d {g}e>f d<{e}c [M:6/4] | {Gdc}(d4 d8) |]

